X:1
T:Uganda, LMD
T:Uganda, LMD
T:John Robson Sweney, 1897
T:Public Domain Courtesy of the Cyber Hymnal™
C:John Robson Sweney, 1897
Z:Public Domain
Z:Courtesy of the Cyber Hymnal™
%%score ( 1 2 ) ( 3 4 )
L:1/8
Q:1/4=93
M:3/4
K:G
V:1 treble 
V:2 treble 
V:3 bass 
V:4 bass 
V:1
 [B,D]2 | [DB]>[CA] [B,G]2 [DB]2 | [EB]>[EA] [CE]2 [DG]2 | [DF]>[CE] [CD]2 [Fc]2 | %4
 [Fc]>[GB] [GB]2 [B,D]2 | [DB]>[CA] [B,G]2 [=Fd]2 | [Ed]>[Ec] [Ec]2 [EA]2 | [DG]>[DF] [FB]2 [DA]2 | %8
 [DA]>[DG] !fermata![DG]2 [Gd]2 | [Fe]>[FA] [FA]2 [Fc]2 | [Gd]>[DG] [DG]2 [DB]2 | %11
 [Dc]3 [DB] [EA][EG] | [DF]>[DG] [DA]2 D2 | [DG]3 [DB] [CA][DB] | [Ec]>[=Fd] !fermata![Ee]2 [Ge]2 | %15
 [Gd]>[GB] [Gd]2 [GB]2 | [FA]>[DG] [DG]2 |] %17
V:2
 x2 | x6 | x6 | x6 | x6 | x6 | x6 | x6 | x6 | x6 | x6 | x6 | x4 D2 | x6 | x6 | x6 | x4 |] %17
V:3
 [G,,G,]2 | [G,,G,]>[G,,G,] [G,,G,]2 [G,,G,]2 | [C,G,]>[C,G,] [C,G,]2 [B,,G,]2 | %3
 [D,A,]>[D,G,] [D,F,]2 [D,A,]2 | [D,D]>[G,D] [G,D]2 [G,,G,]2 | [G,,G,]>[G,,G,] [G,,G,]2 [B,,G,]2 | %6
 [C,G,]>[C,G,] [C,G,]2 [C,C]2 | [D,B,]>[D,A,] [D,D]2 [D,C]2 | %8
 [D,C]>[G,,G,B,] !fermata![G,,G,B,]2 [G,B,]2 | [D,C]>[D,C] [D,C]2 [D,A,]2 | %10
 [G,B,]>[G,B,] [G,B,]2 [G,,G,]2 | [A,,F,]3 [B,,G,] [C,G,][^C,A,] | [D,A,]>[E,A,] [F,A,]2 [A,C]2 | %13
 [G,B,]3 G, G,G, | [C,G,]>[B,,G,] !fermata![C,G,]2 [D,C]2 | [D,B,]>[D,G,] [D,A,]2 [D,D]2 | %16
 [D,C]>[G,,G,B,] [G,,G,B,]2 |] %17
V:4
 x2 | x6 | x6 | x6 | x6 | x6 | x6 | x6 | x6 | x6 | x6 | x6 | x6 | x3 G, G,G, | x6 | x6 | x4 |] %17

